!!!!SEGMENT: pl-wtm--r-730-31-m_moniuszko-stanislaw--piesn-zeglarzy.krn
!!!cenid: 18xx:1711
!!!COM: Moniuszko, Stanisław
!!!COM-rismID: pe30008351
!!!CDT: 1819/05/05-1872/06/04
!!!CNT: Polish
!!!OTL: Pieśń żeglarzy
!!!PDT:
!!!AGN: Secular
!!!SMS-siglum: PL-Wtm
!!!SMS-shelfmark: R 730/31/M
!!!SMS-shelfwork: W
!!!SMS-variant:
!!!SMS-altvar:
!!!NIFC-rismSourceID: 1001099843
!!!NIFC-islandoraID:
!!!URL-pdf-islandora:
!!!URL-scan:
!!!ONB-nifc: Skan 0036, No. 782
!!!AIN: 1 forte 1 vox
!!!key:
**kern	**kern	**dynam	**kern	**text	**text	**text
*part2	*part2	*part2	*part1	*part1	*part1	*part1
*staff3	*staff2	*	*staff1	*staff1	*staff1	*staff1
*Iforte	*Iempty	*	*Ivox	*	*	*
*I"[Fortepian]	*	*	*I"[Głos]	*	*	*
*I'Pf	*	*	*I'V	*	*	*
*clefF4	*clefG2	*	*clefG2	*	*	*
*k[f#c#]	*k[f#c#]	*	*k[f#c#]	*	*	*
*D:	*D:	*	*D:	*	*	*
*M6/8	*M6/8	*	*M6/8	*	*	*
=1	=1	=1	=1	=1	=1	=1
!	!	!	!LO:TX:t=P:problem=4\, 2\right&colon; global	!	!	!
!LO:TX:t=P:problem=4\, 2\, 8\right&colon; global	!LO:TX:t=P:problem=4\, 2\, 8\right&colon; global	!	!LO:TX:a:t=Allegro.	!	!	!
8r	8r	.	4r	.	.	.
8A\L 8AA\	8aa\L 8a\	f	.	.	.	.
!LO:SIC:v:n=2:s=8AA#	!LO:SIC:v:n=2:s=8a#	!	!	!	!	!
8A#X\J 8AA\	8aa#X\J 8a\	<	8r	.	.	.
8B\L 8BB\	8bb\L 8b\	.	4r	.	.	.
!LO:SIC:v:n=2:s=8BB#	!LO:SIC:v:n=2:s=8b#	!	!	!	!	!
8B#X\ 8BB\	8bb#X\ 8b\	.	.	.	.	.
8c#\J 8C#\	8ccc#\J 8cc#\	[[	8a/	We-	.	.
=2!|:	=2!|:	=2!|:	=2!|:	=2!|:	=2!|:	=2!|:
8d\ 8D\	4ddd\ 4aa\ 4ff#\ 4dd\	sf	8.dd\	-so-	.	.
8A\L 8F#\ 8D\	.	.	.	.	.	.
.	.	.	16d/	-ło	.	.
8A\J 8F#\ 8D\	8r	.	8d/	żeg-	.	.
*tremolo	*	*	*	*	*	*
8A\ 8F#\ 8D\L	4r	.	8f#/	-luj-	.	.
8A\ 8F#\ 8D\	.	.	8e/	-my,	.	.
8A\ 8F#\ 8D\J	8a/	.	8d/	we-	.	.
=3	=3	=3	=3	=3	=3	=3
8A\ 8E\ 8C#\L	8aa\L 8a\	.	(4.a/	-so-	.	.
8A\ 8E\ 8C#\	16a\L	.	.	.	.	.
.	16a\J	.	.	.	.	.
8A\ 8E\ 8C#\J	8a\J	.	.	.	.	.
8A\ 8E\ 8C#\L	8a\L	.	8a/)	-ło!	.	.
8A\ 8E\ 8C#\	8b\	.	8r	.	.	.
8A\ 8E\ 8C#\J	8cc#\J	.	8a/	po	.	.
*Xtremolo	*	*	*	*	*	*
=4	=4	=4	=4	=4	=4	=4
4B\ 4BB\	8dd\	.	8dd\	ży-	.	.
.	8f#/L 8d/ 8B/	.	8dd\	-cia	.	.
8r	8f#/J 8c#/	.	8cc#\	burz-	.	.
4B\ 4E\	8r	.	8b\	-li-	.	.
.	8f#/L 8d/	.	8f#/	-wym	.	.
8r	8g/J 8d/	.	8g/	po-	.	.
=5	=5	=5	=5	=5	=5	=5
8A/L	8a/L 8c#/	.	4.a/	-to-	.	.
8E/	16cc#/L	.	.	.	.	.
.	16a/	.	.	.	.	.
8C#/J	16ee/	.	.	.	.	.
.	16cc#/JJ	.	.	.	.	.
4AA/	4aa\ 4a\	.	8A/	-ku;	.	.
.	.	.	8r	.	.	.
8ryy	8r	f	8a/	jak	.	.
=6	=6	=6	=6	=6	=6	=6
*^	*^	*	*	*	*	*
2.G/	4.GG\	4.d^/	4.B\	.	8b/	or-	.	.
.	.	.	.	.	8a/	-ły	.	.
.	.	.	.	.	8g/	w gra-	.	.
.	4.C#\	4.e^/	4.B\	.	8g/	-do-	.	.
.	.	.	.	.	8a/	-wym	.	.
.	.	.	.	.	8b/	o-	.	.
=7	=7	=7	=7	=7	=7	=7	=7	=7
.	.	8qf#/	.	.	.	.	.	.
2.F#/	4.FF#\	8e/L	4.A\	.	4.a/	-bło-	.	.
.	.	8d/	.	.	.	.	.	.
.	.	8c#/J	.	.	.	.	.	.
.	4.BB\	8d/L	8ryy	.	8d/	-ku,	.	.
.	.	8e/	4ryy	.	8r	.	.	.
.	.	8f#/J	.	.	8f#/	choć	.	.
=8	=8	=8	=8	=8	=8	=8	=8	=8
!	!	!	!	!	!LO:TX:a:t=g	!	!	!
4E/	4EE\	4g/	4e\ 4B\	.	8g\	wich-	.	.
!	!	!	!	!	!LO:TX:a:t=g	!	!	!
.	.	.	.	.	8g\	-ry	.	.
!	!	!	!	!	!LO:TX:a:t=g	!	!	!
8E\	2ryy	8g/	8d\ 8B\	.	8g\	pio-	.	.
4E/ 4AA/	.	4g/	4c#\ 4A\	.	8b/	-ru-	.	.
.	.	.	.	.	8a/	-ny	.	.
8E/ 8AA/	.	8g/	8c#\ 8A\	.	8g/	wo-	.	.
*v	*v	*	*	*	*	*	*	*
!!LO:LB:g=original
=9	=9	=9	=9	=9	=9	=9	=9
4D\	8f#/	8d\ 8A\	.	(4f#/	-ko-	.	.
.	8r	8ryy	.	.	.	.	.
8A\ 8F#\ 8D\	8aa\ 8a\	2ryy	<	8a/)	.	.	.
4A\ 4E\ 4C#\	8aa\L 8a\	.	.	8a/	-ło,	.	.
.	8bb\ 8b\	.	.	8r	.	.	.
!	!	!	!	!LO:TX:a:t=X	!	!	!
8A\ 8E\ 8C#\	8ccc#\J 8cc#\	.	.	8a/	we-	.	.
*	*v	*v	*	*	*	*	*
=10	=10	=10	=10	=10	=10	=10
8B\ 8F#\ 8BB\	8ddd\ 8dd\	[	8.dd\	-so-	.	.
8r	8r	.	.	.	.	.
.	.	.	16b\	-ło	.	.
8B\ 8E\	8g#X/ 8d/	.	8g#X/	żeg-	.	.
8A\ 8AA\	8a/ 8c#/	.	8a/	-luj-	.	.
8r	8r	.	8e/	-my	.	.
8G\ 8E\ 8AA\	8c#/	.	8f#/	we-	.	.
=11	=11	=11	=11	=11	=11	=11
8F#\ 8D\	8d/	.	8d/	-so-	.	.
8r	8r	p	8d/	-ło.	.	.
8A\ 8D\	8f#/ 8d/	.	8r	.	.	.
8A\ 8D\	8f#/ 8d/	.	4r	.	.	.
8r	8r	.	.	.	.	.
8A\ 8D\	8f#/ 8d/	.	8r	.	.	.
=12	=12	=12	=12	=12	=12	=12
8A\ 8D\	8f#/ 8d/	.	2.r	.	.	.
8r	8r	.	.	.	.	.
8A\ 8D\	8f#/ 8d/	.	.	.	.	.
8A\ 8D\	8f#/ 8d/	.	.	.	.	.
8r	8r	.	.	.	.	.
8A\ 8D\	8f#/ 8d/	.	.	.	.	.
=13	=13	=13	=13	=13	=13	=13
8A\ 8D\	8fn/ 8d/	.	8d/	Da-	Da-	Każ-
8r	8r	.	8d/	-lej	-lej	-de
8A\ 8D\	8f/ 8d/	.	8d/	i	tu	łań-
8A\ 8D\	8f/ 8d/	.	8fn/	prę-	do	-cu-
8r	8r	.	8d/	-dzej	mnie	-cha
8A\ 8D\	8f/ 8d/	.	8f/	i	mło-	o-
=14	=14	=14	=14	=14	=14	=14
*	*^	*	*	*	*	*
8A\ 8C#\	8a/ 8e/	4ryy	.	(4.a/	da-	-dzień-	-gni-
8r	8r	.	.	.	.	.	.
8A\ 8C#\	8a/ 8e/	8ryy	.	.	.	.	.
.	8qqb/	.	.	.	.	.	.
8Fn\ 8Cn\	8a/L	8e-X\	.	4a\)	.	.	-wo
!	!LO:TX:a:t=g	!	!	!	!	!	!
8r	8g/	8r	.	.	.	.	.
8F\ 8C\	8a/J	8e-\	.	8a\	-lej!	-ce!	prze-
*	*v	*v	*	*	*	*	*
=15	=15	=15	=15	=15	=15	=15
*	*	*	*^	*	*	*
8Fn\ 8BB-X\	8b-X/ 8d/	.	4b-X/	8b-\	bu-	niech	-klę-
8r	8r	.	.	8b-\	-rza	każ-	.
8F\ 8BB-\	8fn/ 8d/	.	8b-/	8b-\	się	-dy	-te!
8F\ 8BB-\	8f/ 8d/	.	8dd\	8ryy	dą-	kie-	gdy
8r	8r	.	8fn/	4ryy	-sa	-lich	się
8E/ 8BB-/	8g/ 8d/	.	8g/	.	da-	wy-	roz-
*	*	*	*v	*v	*	*	*
=16	=16	=16	=16	=16	=16	=16
!LO:SIC:v:n=2:s=8FFn	!	!	!	!	!	!
8Fn\ 8FF#\	8a/ 8cn/	.	(4.a/	-rem-	-pró-	-pad-
8r	8r	.	.	.	.	.
!	!LO:SIC:v:n=2:s=8fn	!	!	!	!	!
8F\	8a/ 8f#/ 8c/	.	.	.	.	.
!LO:SIC:v:s=8FFn	!LO:SIC:v:n=2:s=8fn	!	!	!	!	!
8FF#/	(8a/L 8f#/ 8c/	.	4a/)	-nie,	-żni	-nie;
!	!LO:SIC:v:n=1:s=8fn	!	!	!	!	!
8r	8f#/ 8A/)	.	.	.	.	.
!	!LO:SIC:v:n=2:s=8fn	!	!	!	!	!
8F\	8a/J 8f#/ 8c/	.	8a/	ko-	za	gdy
=17	=17	=17	=17	=17	=17	=17
!LO:SIC:v:n=2:s=8Cn	!	!	!	!	!	!
8G\ 8C#\	8ccn/ 8e/	.	4ccn/	-chan-	ży-	rdza
8r	8r	.	.	.	.	.
!LO:SIC:v:n=2:s=8Cn	!	!	!	!	!	!
8G\ 8C#\	8g/ 8e/	.	8g/	-ka	-cie	się
!LO:SIC:v:n=1:s=8cn	!	!	!	!	!	!
!LO:SIC:v:n=2:s=8Cn	!	!	!	!	!	!
.	8qa/	.	8qa/	.	.	.
8c#\ 8C#\	(8g/L 8e/	.	8g/	zna-	my	wnie-
!	!LO:SIC:v:n=1:s=8fn	!	!	!	!	!
8r	8f#/ 8d/)	.	8fn/	-laz-	zie-	-go
!LO:SIC:v:n=1:s=8cn	!	!	!	!	!	!
!LO:SIC:v:n=2:s=8Cn	!	!	!	!	!	!
8c#\ 8C#\	8g/J 8e/	.	8g/	-ła	-mi	za-
!!LO:LB:g=original
=18	=18	=18	=18	=18	=18	=18
*	*	*	*^	*	*	*
!LO:SIC:v:n=2:s=8Fn	!LO:SIC:v:n=1:s=8ffn	!	!	!	!	!	!
8cn\ 8F#\	8ff#/L 8a/ 8fn/	.	4.a/	2ryy	we	dłuż-	-krad-
8r	16f/L	.	.	.	.	.	.
.	16f/J	.	.	.	.	.	.
!LO:SIC:v:n=3:s=8Fn	!	!	!	!	!	!	!
8c\ 8A\ 8F#\	8f/J	.	.	.	.	.	.
!LO:SIC:v:n=2:s=8Fn	!	!	!	!	!	!	!
8c\ 8F#\	(8a/L	.	8fn/	.	mnie,	-ni	-nie,
8r	8g/)	.	8r	8ryy	.	.	.
!LO:SIC:v:n=2:s=8Fn	!	!	!	!	!	!	!
8A\ 8F#\	8f/J	.	8a/	8r	zko-	.	to
=19	=19	=19	=19	=19	=19	=19	=19
!LO:SIC:v:n=2:s=8Cn	!	!	!	!	!	!	!
8G\ 8C#\	8ccn/ 8e/	.	4ccn/	8ccn\	-chan-	stroj-	o-
8r	8r	.	.	8g\	.	-my	.
!LO:SIC:v:n=1:s=8cn	!	!	!	!	!	!	!
!LO:SIC:v:n=2:s=8Cn	!	!	!	!	!	!	!
8c#\ 8C#\	8g/ 8e/	.	8g/	8g\	-kiem	ją	-gniem
!LO:SIC:v:n=1:s=8cn	!	!	!	!	!	!	!
!LO:SIC:v:n=2:s=8Cn	!	!	!	!	!	!	!
.	8qa/ 8qfn/	.	.	.	.	.	.
8c#\ 8C#\	(8g/L 8e/	.	8g/	8ryy	two-	wlau-	czyś-
!	!LO:SIC:v:n=1:s=8fn	!	!	!	!	!	!
8r	8f/ 8d/)	.	8fn/	4ryy	-im	-ro-	-cić
!LO:SIC:v:n=1:s=8cn	!	!	!	!	!	!	!
!LO:SIC:v:n=2:s=8Cn	!	!	!	!	!	!	!
8c#\ 8C#\	8g/J 8e/	.	8g/	.	po-	-we	co
*	*	*	*v	*v	*	*	*
=20	=20	=20	=20	=20	=20	=20
!LO:SIC:v:n=2:s=8Fn	!	!	!	!	!	!
8c#\ 8F#\	8a/ 8fn/	.	4.a/	-sza-	wień-	ży-
8r	8r	.	.	.	.	.
!LO:SIC:v:s=8FFn	!	!	!	!	!	!
8F#\	8a/ 8f/ 8c#X/	.	.	.	.	.
8BB/	8g/ 8f/ 8d/	.	8g/L	-léj,	-ce,	-wo
8r	8r	.	8b-X/	.	.	.
8BB/	8dd/ 8g/ 8f/	.	8dd/J	.	.	.
=21	=21	=21	=21	=21	=21	=21
!	!LO:SIC:v:n=3:s=8fn	!	!	!	!	!
8Cn/	8ccn/L 8a/ 8f#/	.	8ccn/	da-	żyj-	rdza-
8r	8a/	.	8a/	-léj	-my	-we
!LO:SIC:v:n=2:s=8Fn	!	!	!	!	!	!
8A\ 8F#\ 8C\	8fn/J	.	8fn/	i	wiel-	łań-
!	!LO:SIC:v:s=8cn	!	!	!	!	!
4B\ 4G\ 4C\	8c#/L	.	8cn/	prę-	-koś-	-cu-
.	8d/	.	8d/	-dzej,	-cią	-cha
8C/	8e/J 8B/	.	8e/	i	mło-	o-
=22	=22	=22	=22	=22	=22	=22
8Fn/L	4fn/ 4A/	.	8fn/	da-	-dzień-	-gni-
!LO:SIC:v:s=16FFn	!	!	!	!	!	!
16FF#/L	.	.	8f/	-léj!	-ce!	-wo!
16F/J	.	.	.	.	.	.
!LO:SIC:v:s=8FFn	!	!	!	!	!	!
8FF#/J	8f/ 8cn/ 8A/	.	8r	.	.	.
8AA/L	4f/ 4c/	.	4r	.	.	.
8GG/	.	.	.	.	.	.
!LO:SIC:v:s=8FFn	!	!	!	!	!	!
8FF#/J	8f/ 8c/ 8A/	.	8r	.	.	.
=23	=23	=23	=23	=23	=23	=23
8E/ 8EE/	8a/ 8c#/ 8A/	.	8a/	Mu-	Niech	Prze-
8r	8r	.	8e/	-zy-	każ-	-sącz-
8C#/ 8CC#/	8e/ 8A/	.	8e/	-ka,	-dy	-my
.	.	.	8qf#/	.	.	.
4C#/ 4CC#/	4e/ 4A/	.	8e/	spie-	pół-	ży-
.	.	.	8d/	-wy	-bo-	-cie
8C#/ 8CC#/	8e/ 8A/	.	8e/	i	-giem	dla
=24	=24	=24	=24	=24	=24	=24
*	*	*	*^	*	*	*
4D/ 4DD/	4f#/ 4d/ 4A/	.	4.f#/	2ryy	tań-	bę-	ży-
8D/	8f#/ 8d/ 8A/	.	.	.	.	.	.
4C#/	4e/ 4A/	.	8e/	.	-ce,	-dzie,	-cia
.	.	.	8r	8ryy	.	.	.
8C#/	8e/ 8A/	.	8e/	8r	po-	choć	.
=25	=25	=25	=25	=25	=25	=25	=25
4BB/	4d/ 4A/	.	4d/	8d\	-chod-	go-	wwiel-
.	.	.	.	8d\	.	.	-ki
8BB/	8d/ 8A/	.	8d/	8d\	-nią	-rycz	o
4E/ 4EE/	4f#/ 4d/ 4G#X/	.	8f#/	8ryy	go-	dy-	ce-
.	.	.	8e/	4ryy	-dów	-mi	-an
8E/ 8EE/	8d/ 8G#/	.	8d/	.	zat-	zkie-	ludz-
*	*	*	*v	*v	*	*	*
=26	=26	=26	=26	=26	=26	=26
4E/ 4AA/	4A/	.	4.e/	-lij-	-li-	-koś-
8E/ 8AA/	8e/ 8c#/	.	.	.	.	.
8AA/	8A/	.	8A/	-cie;	-cha;	-ci,
8r	8r	.	8r	.	.	.
8A\	8e/ 8c#/	.	8a/	spie-	niech	od-
!!LO:PB:g=original
=27	=27	=27	=27	=27	=27	=27
8A\ 8E\ 8AA\	8a/ 8c#/	sf	4a/	-waj-	pi-	-daj-
8r	8r	p	.	.	.	.
8A\ 8AA\	8e/ 8c#/	.	8e/	-cie,	-je,	-my
.	.	.	8qfn/	.	.	.
8A\ 8AA\	(8e/L 8c#/	.	8e/	tań-	niech	du-
8r	8d/ 8B/)	.	8d/	-czcie	się	-cha
8A\ 8AA\	8e/J 8c#/	.	8e/	i	u-	i
=28	=28	=28	=28	=28	=28	=28
*	*	*	*^	*	*	*
8A\ 8D\	8fn/ 8d/	.	4.fn/	4.ryy	pij-	-śmie-	koś-
8r	8r	.	.	.	.	.	.
8A\ 8Fn\	8f/ 8d/	.	.	.	.	.	.
*	*	*	*	*cue	*	*	*
8A\	8e/ 8cn/	.	4.e/	4e\	-cie!	-cha,	-ci;
8r	8r	.	.	.	.	.	.
8AA/	8e/ 8c/	.	.	8e\	.	niech	.
*	*	*	*	*Xcue	*	*	*
*	*	*	*v	*v	*	*	*
=29	=29	=29	=29	=29	=29	=29
*^	*^	*	*	*	*	*
(>4.Fn/	(>4BB-X\	4.d/ 4.B-X/	4.ryy	.	(8d/	za-	lis-	a
.	.	.	.	.	8c#X/)	nim	.	u-
.	8AA\	.	.	.	8d/	przy-	-tek	-ni-
4E/)	4GG#X\)	8.e/L	4Bn\	.	8.e/	-sta-	zlau-	-knie-
.	.	16d/K	.	.	16dn/	-ni	-ru	-my
8E/	8E\	8B/J	8G#X\	.	8B/	ka-	zdo-	roz-
*v	*v	*	*	*	*	*	*	*
*	*v	*v	*	*	*	*	*
=30	=30	=30	=30	=30	=30	=30
4AA/	4A/	.	4A/	-gań-	-bę-	-bi-
8r	8r	.	8A/	-ce	-dzie	.
4.CC#X/	4.A</ 4.E</ 4.AA</	.	4A/	spło-	.	-cia
.	.	.	8A/	-szą	a	od-
=31	=31	=31	=31	=31	=31	=31
*	*	*	*^	*	*	*
4.DD/	4.A</ 4.F#</ 4.AA</	.	4A/	4ryy	mu-	każ-	-da-
.	.	.	8A/	8ryy	-zy-	-dy	-jąc
4.GGG/	4.B</ 4.G</ 4.D</ 4.GG</	.	4B/	8B\	-kę	poł-	ży-
.	.	.	.	8B\	.	-bo	-cie
.	.	.	8B/	8ryy	i	giem	za
*	*	*	*v	*v	*	*	*
=32	=32	=32	=32	=32	=32	=32
8AA\ 8AAA\	8A</ 8E</ 8C#</	.	(4A/	tań-	bę-	ży-
8r	8ryy	.	.	.	.	.
8r	8ryy	.	16c#/LL	.	.	.
.	.	.	16B/JJ)	.	.	.
4r	4r	.	4A/	-ce.	-dzie.	-cia.
8E\ 8EE'\	8ee\ 8e'\	.	8r	.	.	.
=33	=33	=33	=33	=33	=33	=33
4A\ 4AA\	4aa\ 4a\	.	2.r	.	.	.
8r	8r	.	.	.	.	.
4r	4r	.	.	.	.	.
8E\ 8EE\	8ee\ 8e'\	.	.	.	.	.
=34	=34	=34	=34	=34	=34	=34
4A\ 4AA\	4aa\ 4a\	.	2.r	.	.	.
8r	8r	.	.	.	.	.
!LO:TX:t=P:problem=nadliczbowa 8r	!	!	!	!	!	!
!LO:N:vis=4	!	!	!	!	!	!
8r	4r	.	.	.	.	.
8r	.	.	.	.	.	.
8E\ 8EE\	8ee\ 8e\	.	.	.	.	.
=35	=35	=35	=35	=35	=35	=35
8A\ 8AA\	8aa\ 8a\	.	4r	.	.	.
8A\L 8AA\	8aa\L 8a\	.	.	.	.	.
!LO:SIC:v:n=2:s=8AA#	!LO:SIC:v:n=1:s=8aa#	!	!	!	!	!
8A#X\J 8AA\	8aa\J 8a#X\	.	8r	.	.	.
8B\L 8BB\	8bb\L 8b\	.	4r	.	.	.
!LO:SIC:v:n=2:s=8BB#	!LO:SIC:v:n=1:s=8bb#	!	!	!	!	!
8B#X\ 8BB\	8bb\ 8b#X\	.	.	.	.	.
!	!LO:TX:t=Od znaku [znak cody] di X	!	!	!	!	!
8c#\J 8C#\	8ccc#\J 8cc#\	.	8a\	we-	.	.
!!LO:LB:g=original
=36:|!	=36:|!	=36:|!	=36:|!	=36:|!	=36:|!	=36:|!
*tremolo	*	*	*	*	*	*
8G#X\L 8E\ 8D\ 8BB\	8ddd\L 8dd\	.	[4.dd\	-so-	.	.
8G#X\ 8E\ 8D\ 8BB\	16gg#X\L	.	.	.	.	.
.	16ee\	.	.	.	.	.
8G#X\J 8E\ 8D\ 8BB\	16bb\	.	.	.	.	.
.	16gg#\JJ	.	.	.	.	.
4G#\ 4E\ 4D\ 4BB\	4ddd\ 4dd\	.	8dd\]	.	.	.
.	.	.	8b\	-ło	.	.
8r	8r	.	8g#X/	żeg-	.	.
=37	=37	=37	=37	=37	=37	=37
8A\L 8E\ 8C#\ 8AA\	8aa\L 8a\	.	[4.a/	-luj-	.	.
8A\ 8E\ 8C#\ 8AA\	16cc#\L	.	.	.	.	.
.	16a\	.	.	.	.	.
8A\J 8E\ 8C#\ 8AA\	16ee\	.	.	.	.	.
.	16cc#\JJ	.	.	.	.	.
*Xtremolo	*	*	*	*	*	*
4A\ 4E\ 4C#\ 4AA\	4aa\	.	8a/]	.	.	.
.	.	.	8g/	-my	.	.
8r	8r	.	8e/	we-	.	.
=38	=38	=38	=38	=38	=38	=38
8D/L 8DD/	8dd/L 8a/ 8f#/ 8d/	.	8d/	-so-	.	.
16D/L	16d/L	.	8d/	-ło	.	.
16D/J	16d/J	.	.	.	.	.
8D/J	8d/J	.	8r	.	.	.
8F#\L	8f#/L	.	4r	.	.	.
8D\	8d/	.	.	.	.	.
8F#\J	8f#/J	.	8r	.	.	.
=39	=39	=39	=39	=39	=39	=39
8A\L	8a/L	.	2.r	.	.	.
16F#\L	16f#/L	.	.	.	.	.
16F#\J	16f#/J	.	.	.	.	.
8F#\J	8f#/J	.	.	.	.	.
8A\L	8a/L	.	.	.	.	.
8F#\	8f#/	.	.	.	.	.
8A\J	8a/J	.	.	.	.	.
=40	=40	=40	=40	=40	=40	=40
8d\L	8dd\L	.	2.r	.	.	.
8A\	8a\	.	.	.	.	.
8F#\J	8ff#\J	.	.	.	.	.
8D/L	8dd\L	.	.	.	.	.
8AA/	8aa\	.	.	.	.	.
8FF#/J	8ff#\J	.	.	.	.	.
=41	=41	=41	=41	=41	=41	=41
4DD/	4ddd\	.	2.r	.	.	.
8r	8r	.	.	.	.	.
4D/ 4DD/	4fff#\ 4ddd\ 4aa\ 4ff#\	sf	.	.	.	.
8ryy	8r	.	.	.	.	.
=42	=42	=42	=42	=42	=42	=42
2.D/ 2.DD/	2.d/ 2.A/ 2.F#/	.	2.r	.	.	.
==	==	==	==	==	==	==
*-	*-	*-	*-	*-	*-	*-
!!!system-decoration: [s1,{s2,s3}]
!!!RDF**kern: > = above
!!!RDF**kern: < = below
!!!EED: Leszek Kubiak
!!!EEV: 2021-04-20
!!!ENC: Kamil Watkowski
!!!END: 2021-04-01
